src/main/resources/icons/TasksCoreIcons/icons/asana.svg

<svg xmlns="http://www.w3.org/2000/svg" width="16" height="16" viewBox="0 0 16 16">
  <defs>
    <radialGradient id="asana-a" cy="54.652%" r="72.287%" fx="50%" fy="54.652%" gradientTransform="matrix(.91667 0 0 1 .042 0)">
      <stop offset="0%" stop-color="#FFB900"/>
      <stop offset="60%" stop-color="#F95D8F"/>
      <stop offset="99.91%" stop-color="#F95353"/>
    </radialGradient>
  </defs>
  <path fill="url(#asana-a)" d="M9.39026684,5.82348714 C7.94878701,5.82348714 6.78044305,6.98222093 6.78044305,8.41165375 C6.78044305,9.8411764 7.94878701,11 9.39026684,11 C10.8315655,11 12,9.8411764 12,8.41165375 C12,6.98222093 10.8315655,5.82348714 9.39026684,5.82348714 Z M2.60977841,5.82366677 C1.16847981,5.82366677 0,6.98222093 0,8.41178848 C0,9.8411764 1.16847981,11 2.60977841,11 C4.05116773,11 5.21969285,9.8411764 5.21969285,8.41178848 C5.21969285,6.98222093 4.05116773,5.82366677 2.60977841,5.82366677 Z M8.60971053,2.58816662 C8.60971053,4.01759944 7.44136657,5.17660267 6.00006789,5.17660267 C4.55863343,5.17660267 3.39024421,4.01759944 3.39024421,2.58816662 C3.39024421,1.1588236 4.55863343,0 6.00006789,0 C7.44136657,0 8.60971053,1.1588236 8.60971053,2.58816662 Z" transform="translate(2 2)"/>
</svg>

<svg xmlns="http://www.w3.org/2000/svg" width="16" height="16" viewBox="0 0 16 16"><rect id="frame" width="16" height="16" fill="none"/><defs><radialGradient id="a" cy="54.652%" r="72.287%" fx="50%" fy="54.652%" gradientTransform="matrix(.91667 0 0 1 .042 0)"><stop offset="0%" stop-color="#FFB900"/><stop offset="60%" stop-color="#F95D8F"/><stop offset="99.91%" stop-color="#F95353"/></radialGradient></defs><path fill="url(#a)" d="M9.39 5.823a2.599 2.599 0 0 0-2.61 2.589A2.6 2.6 0 0 0 9.39 11 2.6 2.6 0 0 0 12 8.412a2.599 2.599 0 0 0-2.61-2.589zm-6.78 0A2.599 2.599 0 0 0 0 8.413 2.6 2.6 0 0 0 2.61 11a2.6 2.6 0 0 0 2.61-2.588 2.599 2.599 0 0 0-2.61-2.588zm6-3.235A2.6 2.6 0 0 1 6 5.177a2.6 2.6 0 0 1-2.61-2.589A2.6 2.6 0 0 1 6 0a2.599 2.599 0 0 1 2.61 2.588z" transform="translate(2 2)"/></svg>
